X: 8419
T: Cowley Crosses The Chilterns
R: jig
M: 6/8
K: Dmajor
A|:DEF ABd|efb afd|cdB AFD|FGE CB,A,|
B,A,B, DCD|FEd BAc|def baf|1 efe d2B:|2 efe dcd||
~e3 ecA|~f3 fdA|def baf|afe e2c|
dcd BAF|DEF EDB,|def baf|1 efe dcd:|2 efe d2B||

